img/logo-text.svg

<svg width="198" height="27" viewBox="0 0 198 27" fill="none" xmlns="http://www.w3.org/2000/svg">
<path d="M25.6843 19.3402C25.6843 20.2298 25.5648 21.0327 25.3258 21.749C25.0988 22.4538 24.7941 23.0777 24.4117 23.6207C24.0293 24.1637 23.5812 24.6258 23.0674 25.0071C22.5536 25.3883 22.0219 25.7003 21.4723 25.9429C20.9226 26.1855 20.361 26.3646 19.7875 26.4801C19.2259 26.5956 18.6941 26.6534 18.1923 26.6534H0.215081V22.1476H18.1923C19.0884 22.1476 19.7815 21.8935 20.2714 21.3851C20.7732 20.8768 21.0242 20.1951 21.0242 19.3402C21.0242 18.9243 20.9585 18.543 20.827 18.1964C20.6956 17.8498 20.5044 17.5494 20.2535 17.2952C20.0145 17.0411 19.7158 16.8447 19.3573 16.706C19.0108 16.5674 18.6224 16.4981 18.1923 16.4981H7.47407C6.72128 16.4981 5.90875 16.371 5.03648 16.1168C4.16421 15.8511 3.35168 15.4294 2.5989 14.8517C1.85806 14.2741 1.23672 13.5173 0.73486 12.5815C0.244953 11.6457 0 10.5019 0 9.15019C0 7.79846 0.244953 6.66046 0.73486 5.7362C1.23672 4.80038 1.85806 4.04365 2.5989 3.46598C3.35168 2.87677 4.16421 2.45507 5.03648 2.2009C5.90875 1.93517 6.72128 1.80231 7.47407 1.80231H23.3363V6.30809H7.47407C6.58984 6.30809 5.8968 6.56804 5.39495 7.08793C4.90504 7.60783 4.66009 8.29525 4.66009 9.15019C4.66009 10.0167 4.90504 10.7041 5.39495 11.2125C5.8968 11.7092 6.58984 11.9576 7.47407 11.9576H18.1923H18.2281C18.73 11.9692 19.2617 12.0385 19.8233 12.1656C20.3849 12.2811 20.9405 12.466 21.4902 12.7202C22.0518 12.9743 22.5835 13.2978 23.0854 13.6906C23.5872 14.0719 24.0293 14.534 24.4117 15.077C24.806 15.62 25.1167 16.2439 25.3437 16.9487C25.5707 17.6534 25.6843 18.4506 25.6843 19.3402Z" fill="white"/>
<path d="M50.1139 20.328C50.1139 21.1021 50.0123 21.801 49.8092 22.4249C49.606 23.0372 49.3372 23.5802 49.0026 24.0539C48.6681 24.516 48.2797 24.9146 47.8376 25.2497C47.3955 25.5732 46.9295 25.8389 46.4396 26.0469C45.9616 26.2548 45.4717 26.4108 44.9699 26.5148C44.4799 26.6072 44.0139 26.6534 43.5718 26.6534H35.1657C34.5205 26.6534 33.8155 26.5436 33.0508 26.3241C32.286 26.1046 31.5751 25.7465 30.9179 25.2497C30.2727 24.7413 29.729 24.0886 29.2869 23.2914C28.8567 22.4827 28.6416 21.4949 28.6416 20.328V14.2279C28.6416 13.0725 28.8567 12.0963 29.2869 11.2991C29.729 10.4904 30.2727 9.83761 30.9179 9.34082C31.5751 8.83248 32.286 8.46855 33.0508 8.24904C33.8155 8.02952 34.5205 7.91977 35.1657 7.91977H43.5718C44.7667 7.91977 45.7824 8.12773 46.6188 8.54365C47.4552 8.95956 48.1304 9.48524 48.6442 10.1207C49.158 10.7445 49.5284 11.4262 49.7554 12.1656C49.9944 12.905 50.1139 13.5924 50.1139 14.2279V20.328ZM45.4538 14.2625C45.4538 13.6386 45.2925 13.1765 44.9699 12.8761C44.6472 12.5757 44.1812 12.4255 43.5718 12.4255H35.2016C34.5802 12.4255 34.1083 12.5815 33.7856 12.8935C33.463 13.1938 33.3017 13.6386 33.3017 14.2279V20.328C33.3017 20.9172 33.463 21.3678 33.7856 21.6797C34.1083 21.9917 34.5802 22.1476 35.2016 22.1476H43.5718C44.2051 22.1476 44.6771 21.9917 44.9878 21.6797C45.2985 21.3678 45.4538 20.9172 45.4538 20.328V14.2625Z" fill="white"/>
<path d="M72.8587 26.6534H60.2227C59.5774 26.6534 58.8725 26.5436 58.1077 26.3241C57.343 26.1046 56.632 25.7465 55.9748 25.2497C55.3296 24.7413 54.7859 24.0886 54.3438 23.2914C53.9136 22.4827 53.6986 21.4949 53.6986 20.328V14.2279C53.6986 13.8004 53.7464 13.3498 53.8419 12.8761C53.9495 12.4024 54.1108 11.9345 54.3259 11.4724C54.541 10.9987 54.8158 10.5481 55.1504 10.1207C55.4969 9.6932 55.9091 9.31771 56.3871 8.99422C56.877 8.67073 57.4386 8.41078 58.0719 8.21438C58.7052 8.01797 59.4221 7.91977 60.2227 7.91977H72.8587V12.4255H60.2227C59.6133 12.4255 59.1473 12.5757 58.8247 12.8761C58.514 13.1765 58.3587 13.6386 58.3587 14.2625V20.328C58.3587 20.9172 58.52 21.3678 58.8426 21.6797C59.1652 21.9917 59.6372 22.1476 60.2585 22.1476H72.8587V26.6534Z" fill="white"/>
<path d="M81.444 4.07253H76.7839V0H81.444V4.07253ZM81.444 26.6534H76.7839V7.91977H81.444V26.6534Z" fill="white"/>
<path d="M105.927 20.4493C105.927 21.0732 105.814 21.749 105.587 22.4769C105.36 23.1932 104.989 23.8633 104.476 24.4872C103.974 25.0995 103.311 25.6136 102.486 26.0295C101.674 26.4454 100.682 26.6534 99.5108 26.6534H91.1047C90.4595 26.6534 89.7605 26.5436 89.0077 26.3241C88.2669 26.1046 87.5738 25.7522 86.9286 25.267C86.2953 24.7702 85.7636 24.129 85.3334 23.3434C84.9032 22.5462 84.6881 21.5815 84.6881 20.4493C84.6881 19.8254 84.8017 19.1495 85.0287 18.4217C85.2557 17.6938 85.6202 17.0237 86.122 16.4114C86.6358 15.7875 87.299 15.2677 88.1115 14.8517C88.936 14.4358 89.9337 14.2279 91.1047 14.2279H99.5108V18.5257H91.1047C90.4714 18.5257 89.9815 18.7163 89.635 19.0976C89.2885 19.4673 89.1152 19.9294 89.1152 20.484C89.1152 21.0732 89.3124 21.5353 89.7067 21.8703C90.113 22.1938 90.5909 22.3556 91.1406 22.3556H99.5108C100.144 22.3556 100.634 22.1707 100.981 21.801C101.327 21.4313 101.5 20.9692 101.5 20.4146V14.1239C101.5 13.5347 101.309 13.0668 100.927 12.7202C100.556 12.3736 100.084 12.2003 99.5108 12.2003H89.2765V7.91977H99.5108C100.156 7.91977 100.849 8.02952 101.59 8.24904C102.343 8.46855 103.036 8.8267 103.669 9.32349C104.314 9.80873 104.852 10.4499 105.282 11.2471C105.712 12.0327 105.927 12.9917 105.927 14.1239V20.4493Z" fill="white"/>
<path d="M118.42 26.6534H116.341C115.672 26.6534 114.955 26.5436 114.19 26.3241C113.437 26.1046 112.732 25.7465 112.075 25.2497C111.418 24.7413 110.874 24.0886 110.444 23.2914C110.014 22.4827 109.799 21.4949 109.799 20.328V0H114.459V20.328C114.459 20.8825 114.638 21.3273 114.997 21.6624C115.355 21.9859 115.803 22.1476 116.341 22.1476H118.42V26.6534Z" fill="white"/>
<path d="M137.688 16.2555H120.876V12.2003H137.688V16.2555Z" fill="white"/>
<path d="M172.387 26.6534H167.691V11.8537L159.429 25.9082C159.226 26.2664 158.939 26.5379 158.568 26.7227C158.21 26.9076 157.822 27 157.403 27C156.997 27 156.615 26.9076 156.256 26.7227C155.91 26.5379 155.635 26.2664 155.432 25.9082L147.133 11.8537V26.6534H142.473V3.72593C142.473 3.20603 142.629 2.7439 142.939 2.33954C143.262 1.93517 143.68 1.66367 144.194 1.52503C144.445 1.46727 144.696 1.44994 144.947 1.47304C145.198 1.4846 145.437 1.53659 145.664 1.62901C145.903 1.70988 146.118 1.83119 146.309 1.99294C146.5 2.14313 146.661 2.32798 146.793 2.5475L157.403 20.38L168.014 2.5475C168.289 2.10847 168.665 1.79653 169.143 1.61168C169.633 1.42683 170.141 1.39795 170.667 1.52503C171.169 1.66367 171.581 1.93517 171.904 2.33954C172.226 2.7439 172.387 3.20603 172.387 3.72593V26.6534Z" fill="white"/>
<path d="M198 14.1239C198 14.7478 197.886 15.4236 197.659 16.1515C197.432 16.8678 197.062 17.5379 196.548 18.1617C196.046 18.7741 195.383 19.2882 194.559 19.7041C193.746 20.12 192.754 20.328 191.583 20.328H183.177V16.0475H191.583C192.217 16.0475 192.707 15.8626 193.053 15.4929C193.4 15.1117 193.573 14.6438 193.573 14.0892C193.573 13.5 193.376 13.0379 192.981 12.7028C192.599 12.3678 192.133 12.2003 191.583 12.2003H183.177C182.544 12.2003 182.054 12.3909 181.708 12.7721C181.361 13.1418 181.188 13.604 181.188 14.1585V20.4493C181.188 21.0501 181.379 21.518 181.761 21.853C182.156 22.1881 182.64 22.3556 183.213 22.3556H191.583V26.6534H183.177C182.532 26.6534 181.833 26.5436 181.08 26.3241C180.339 26.1046 179.646 25.7522 179.001 25.267C178.368 24.7702 177.836 24.129 177.406 23.3434C176.976 22.5462 176.761 21.5815 176.761 20.4493V14.1239C176.761 13.5 176.874 12.8299 177.101 12.1136C177.328 11.3858 177.693 10.7157 178.195 10.1033C178.708 9.47946 179.372 8.95956 180.184 8.54365C181.009 8.12773 182.006 7.91977 183.177 7.91977H191.583C192.229 7.91977 192.922 8.02952 193.663 8.24904C194.415 8.46855 195.108 8.8267 195.742 9.32349C196.387 9.80873 196.925 10.4499 197.355 11.2471C197.785 12.0327 198 12.9917 198 14.1239Z" fill="white"/>
</svg>

<svg xmlns="http://www.w3.org/2000/svg" width="198" height="27" fill="#fff"  xmlns:v="https://vecta.io/nano"><path d="M25.684 19.34c0 .89-.119 1.692-.358 2.409a6.9 6.9 0 0 1-.914 1.872c-.382.543-.831 1.005-1.344 1.386a8.33 8.33 0 0 1-1.595.936 8.07 8.07 0 0 1-1.685.537 7.93 7.93 0 0 1-1.595.173H.215v-4.506h17.977c.896 0 1.589-.254 2.079-.762.502-.508.753-1.19.753-2.045a3.2 3.2 0 0 0-.197-1.144c-.131-.347-.323-.647-.574-.901a2.39 2.39 0 0 0-.896-.589c-.346-.139-.735-.208-1.165-.208H7.474c-.753 0-1.565-.127-2.438-.381a7.64 7.64 0 0 1-2.438-1.265c-.741-.578-1.362-1.334-1.864-2.27C.245 11.646 0 10.502 0 9.15s.245-2.49.735-3.414c.502-.936 1.123-1.693 1.864-2.27.753-.589 1.565-1.011 2.438-1.265.872-.266 1.685-.399 2.438-.399h15.862v4.506H7.474c-.884 0-1.577.26-2.079.78-.49.52-.735 1.207-.735 2.062 0 .867.245 1.554.735 2.062.502.497 1.195.745 2.079.745h10.754c.502.012 1.034.081 1.595.208a7.61 7.61 0 0 1 1.667.555 7.8 7.8 0 0 1 1.595.97 6.23 6.23 0 0 1 1.326 1.386c.394.543.705 1.167.932 1.872s.341 1.502.341 2.392zm24.43.988c0 .774-.102 1.473-.305 2.097-.203.612-.472 1.155-.807 1.629a5.63 5.63 0 0 1-1.165 1.196c-.442.323-.908.589-1.398.797-.478.208-.968.364-1.47.468a7.59 7.59 0 0 1-1.398.139h-8.406c-.645 0-1.35-.11-2.115-.329s-1.476-.578-2.133-1.074c-.645-.508-1.189-1.161-1.631-1.958-.43-.809-.645-1.796-.645-2.963v-6.1c0-1.155.215-2.132.645-2.929.442-.809.986-1.461 1.631-1.958a6.32 6.32 0 0 1 2.133-1.092c.765-.22 1.47-.329 2.115-.329h8.406c1.195 0 2.211.208 3.047.624s1.512.942 2.025 1.577c.514.624.884 1.306 1.111 2.045.239.739.358 1.427.358 2.062v6.1zm-4.66-6.065c0-.624-.161-1.086-.484-1.386s-.789-.451-1.398-.451h-8.37c-.621 0-1.093.156-1.416.468-.323.3-.484.745-.484 1.334v6.1c0 .589.161 1.04.484 1.352s.795.468 1.416.468h8.37c.633 0 1.105-.156 1.416-.468s.466-.762.466-1.352v-6.065zm27.405 12.39H60.223c-.645 0-1.35-.11-2.115-.329s-1.476-.578-2.133-1.074c-.645-.508-1.189-1.161-1.631-1.958-.43-.809-.645-1.796-.645-2.963v-6.1c0-.428.048-.878.143-1.352a6.99 6.99 0 0 1 .484-1.404 6.65 6.65 0 0 1 .825-1.352 5.67 5.67 0 0 1 1.237-1.126 6.57 6.57 0 0 1 1.685-.78c.633-.196 1.35-.295 2.151-.295H72.86v4.506H60.223c-.609 0-1.075.15-1.398.451-.311.3-.466.763-.466 1.386v6.066c0 .589.161 1.04.484 1.352s.795.468 1.416.468h12.6v4.506zm8.585-22.58h-4.66V0h4.66v4.073zm0 22.581h-4.66V7.92h4.66v18.734zm24.483-6.205c0 .624-.113 1.3-.34 2.028-.227.716-.598 1.386-1.111 2.01-.502.612-1.165 1.126-1.99 1.542-.812.416-1.804.624-2.975.624h-8.406c-.645 0-1.344-.11-2.097-.329-.741-.22-1.434-.572-2.079-1.057-.633-.497-1.165-1.138-1.595-1.924-.43-.797-.645-1.762-.645-2.894 0-.624.114-1.3.341-2.028a5.94 5.94 0 0 1 1.093-2.01c.514-.624 1.177-1.144 1.99-1.56.825-.416 1.822-.624 2.993-.624h8.406v4.298h-8.406c-.633 0-1.123.191-1.47.572-.347.37-.52.832-.52 1.386 0 .589.197 1.051.591 1.386.406.323.884.485 1.434.485h8.37c.633 0 1.123-.185 1.47-.555s.519-.832.519-1.386v-6.291c0-.589-.191-1.057-.573-1.404-.371-.347-.843-.52-1.416-.52H89.277V7.92h10.234c.645 0 1.338.11 2.079.329.753.22 1.446.578 2.079 1.074.645.485 1.183 1.126 1.613 1.924.43.786.645 1.745.645 2.877v6.325zm12.493 6.204h-2.079c-.669 0-1.386-.11-2.151-.329a6.53 6.53 0 0 1-2.115-1.074c-.657-.508-1.201-1.161-1.631-1.958-.43-.809-.645-1.796-.645-2.963V0h4.66v20.328c0 .555.179.999.538 1.334.358.323.806.485 1.344.485h2.079v4.506zm19.268-10.397h-16.812V12.2h16.812v4.055zm34.699 10.397h-4.696v-14.8l-8.262 14.055a1.98 1.98 0 0 1-.861.814 2.5 2.5 0 0 1-1.165.277 2.47 2.47 0 0 1-1.147-.277 2.04 2.04 0 0 1-.824-.814l-8.299-14.054v14.8h-4.66V3.726c0-.52.156-.982.466-1.386.323-.404.741-.676 1.255-.815a2.37 2.37 0 0 1 .753-.052 2.15 2.15 0 0 1 .717.156 1.96 1.96 0 0 1 .645.364c.191.15.352.335.484.555l10.61 17.833 10.611-17.832c.275-.439.651-.751 1.129-.936.49-.185.998-.214 1.524-.087a2.34 2.34 0 0 1 1.237.815 2.16 2.16 0 0 1 .483 1.386v22.927zM198 14.124c0 .624-.114 1.3-.341 2.028a6 6 0 0 1-1.111 2.01c-.502.612-1.165 1.127-1.989 1.542-.813.416-1.805.624-2.976.624h-8.406v-4.28h8.406c.634 0 1.124-.185 1.47-.555.347-.381.52-.849.52-1.404 0-.589-.197-1.051-.592-1.386-.382-.335-.848-.502-1.398-.502h-8.406c-.633 0-1.123.191-1.469.572-.347.37-.52.832-.52 1.386v6.291c0 .601.191 1.069.573 1.404.395.335.879.503 1.452.503h8.37v4.298h-8.406c-.645 0-1.344-.11-2.097-.329a6.52 6.52 0 0 1-2.079-1.057c-.633-.497-1.165-1.138-1.595-1.924-.43-.797-.645-1.762-.645-2.894v-6.325c0-.624.113-1.294.34-2.01a5.94 5.94 0 0 1 1.094-2.01c.513-.624 1.177-1.144 1.989-1.56.825-.416 1.822-.624 2.993-.624h8.406c.646 0 1.339.11 2.08.329a6.13 6.13 0 0 1 2.079 1.074c.645.485 1.183 1.126 1.613 1.924.43.786.645 1.745.645 2.877z"/></svg>
